svgs/sharp-thin/hourglass-half.svg

<svg xmlns="http://www.w3.org/2000/svg" viewBox="0 0 384 512"><!--! Font Awesome Pro 7.1.0 by @fontawesome - https://fontawesome.com License - https://fontawesome.com/license (Commercial License) Copyright 2025 Fonticons, Inc. --><path fill="currentColor" d="M8 0l-8 0 0 16 32 0 0 132 3.3 2.4 143.3 105.6-143.3 105.6-3.3 2.4 0 132-32 0 0 16 384 0 0-16-32 0 0-132-3.3-2.4-143.3-105.6 143.3-105.6 3.3-2.4 0-132 32 0 0-16-376 0zM336 16l0 112-288 0 0-112 288 0zm-5.5 128L192 246.1 53.5 144 330.5 144zM192 265.9l144 106.1 0 44-288 0 0-44 144-106.1zM48 496l0-64 288 0 0 64-288 0z"/></svg>

<svg xmlns="http://www.w3.org/2000/svg" viewBox="0 0 384 512"><!--! Font Awesome Pro 6.7.2 by @fontawesome - https://fontawesome.com License - https://fontawesome.com/license (Commercial License) Copyright 2024 Fonticons, Inc. --><path d="M8 0L0 0 0 16l8 0 24 0 0 128 0 4 3.3 2.4L178.5 256 35.3 361.6 32 364l0 4 0 128L8 496l-8 0 0 16 8 0 368 0 8 0 0-16-8 0-24 0 0-128 0-4-3.3-2.4L205.5 256 348.7 150.4 352 148l0-4 0-128 24 0 8 0 0-16-8 0L8 0zM336 16l0 112L48 128 48 16l288 0zm-5.5 128L192 246.1 53.5 144l277 0zM192 265.9L336 372l0 44L48 416l0-44L192 265.9zM48 496l0-64 288 0 0 64L48 496z"/></svg>
